svgs/sharp-regular/calculator.svg

<svg xmlns="http://www.w3.org/2000/svg" viewBox="0 0 384 512"><!--! Font Awesome Pro 6.6.0 by @fontawesome - https://fontawesome.com License - https://fontawesome.com/license (Commercial License) Copyright 2024 Fonticons, Inc. --><path d="M336 176L48 176l0 288 288 0 0-288zm0-48l0-80L48 48l0 80 288 0zm48 0l0 24 0 24 0 288 0 48-48 0L48 512 0 512l0-48L0 176l0-24 0-24L0 48 0 0 48 0 336 0l48 0 0 48 0 80zM80 208l48 0 0 48-48 0 0-48zm48 88l0 48-48 0 0-48 48 0zM80 384l136 0 0 48L80 432l0-48zM216 208l0 48-48 0 0-48 48 0zm-48 88l48 0 0 48-48 0 0-48zm136-88l0 48-48 0 0-48 48 0zm-48 88l48 0 0 48-48 0 0-48zm48 88l0 48-48 0 0-48 48 0z"/></svg>

<svg xmlns="http://www.w3.org/2000/svg" viewBox="0 0 384 512"><!--! Font Awesome Pro 6.4.0 by @fontawesome - https://fontawesome.com License - https://fontawesome.com/license (Commercial License) Copyright 2023 Fonticons, Inc. --><path d="M336 176H48V464H336V176zm0-48V48H48v80H336zm48 0v24 24V464v48H336 48 0V464 176 152 128 48 0H48 336h48V48v80zM80 208h48v48H80V208zm48 88v48H80V296h48zM80 384H216v48H80V384zM216 208v48H168V208h48zm-48 88h48v48H168V296zm136-88v48H256V208h48zm-48 88h48v48H256V296zm48 88v48H256V384h48z"/></svg>
